X: 15613
T: Goat's Horns, The
R: jig
M: 6/8
K: Dmajor
e|fdd edA|Bdd Afe|fdd edA|Bdd d2 e|
fdd edA|Bdd ABd|~f3 dBA|Bdd d2:|
A|FAA AFA|Bdd AFE|FAA AFA|BAF E3|
FAA AFA|Bdd Ade|~f3 dBA|Bdd d2:|

